X:1
T:Deerhurst, 87.87 D
T:James Langran, 1859
T:Deerhurst, 87.87 D
T:Public Domain
C:James Langran, 1859
Z:Public Domain
%%score ( 1 2 ) ( 3 4 )
L:1/8
M:4/2
K:F
V:1 treble 
V:2 treble 
V:3 bass 
V:4 bass 
V:1
 [FA]2 [Gc]2 [FA]2 [CF]2 | [CE]2 [CF]2 [CG]2 [CA]2 | [FB]2 (FE) [DG]2 [Gc]2 | [Ge]2 [Fd]2 [Ec]4 | %4
 [FA]2 [Gc]2 [FA]2 [CF]2 | [CE]2 [CF]2 [CG]2 [CA]2 | [FB]2 [FA]2 [Fd]2 [Fc]2 | [FA]2 [EG]2 F4 | %8
 [FA]2 [Gc]2 [Ff]2 [Fd]2 | [Fc]2 F2 [EB]2 [FA]2 | G2 [^FA]2 [Gc]2 [GB]2 | F2 [EG]2 [EA]4 | %12
 [FA]2 [Gc]2 [Ff]2 [Fd]2 | [Fc]2 F2 [EB]2 [FA]2 | G2 [^FA]2 [Gc]2 [GB]2 | D2 [CE]2 [CF]4 |] %16
V:2
 x8 | x8 | x2 A2 x4 | x8 | x8 | x8 | x8 | x4 F4 | x8 | x2 F2 x4 | G2 x6 | F2 x6 | x8 | x2 F2 x4 | %14
 G2 x6 | D2 x6 |] %16
V:3
 [F,C]2 [E,C]2 [F,C]2 [A,C]2 | [G,B,]2 [F,A,]2 [E,G,]2 F,2 | [F,D]2 [F,C]2 [F,=B,]2 [E,C]2 | %3
 [G,C]2 [G,=B,]2 [C,C]4 | [F,C]2 [E,C]2 [F,C]2 [A,C]2 | [G,B,]2 [F,A,]2 [E,G,]2 [F,C]2 | %6
 [D,B,]2 [F,C]2 [B,,B,]2 [A,,C]2 | [C,C]2 [C,B,]2 [F,A,]4 | [F,C]2 [E,C]2 [D,A,]2 B,2 | %9
 [A,C]2 [A,C]2 [G,C]2 [F,C]2 | [B,D]2 [A,D]2 [G,D]2 [G,D]2 | [B,D]2 [B,D]2 [A,^C]4 | %12
 [D,D]2 (CB,) [F,A,]2 B,2 | [A,C]2 [A,C]2 [G,C]2 [F,C]2 | [B,D]2 [A,D]2 [G,D]2 (G,,A,,) | %15
 [B,,B,]2 [C,B,]2 [F,,A,]4 |] %16
V:4
 x8 | x6 F,2 | x8 | x8 | x8 | x8 | x8 | x8 | x6 B,2 | x8 | x8 | x8 | x2 E,2 x B,2 x | x8 | x6 G,2 | %15
 x8 |] %16

